X:1
T:Title
%%score [ 1 2 3 4 ]
L:1/8
Q:1/4=120
M:4/4
K:C
V:1 treble nm="MusicXML Part"
V:2 treble nm="MusicXML Part"
V:3 treble-8 nm="MusicXML Part"
V:4 bass nm="MusicXML Part"
V:1
"^Als Jesus Christus in der Nacht  (B.A.39. No.13)" A2 | c2 A2 _B2 A2 | G2 G2 F2 A2 | %3
w: 1.  Als|Je- sus Chri- stus|in der Nacht, da-|
w: 2.  Da|nahm er in die|Hand das Brot und|
w: 3.  Nehmt|hin und eßt, das|ist mein Leib, der|
w: 4.  Des-|glei- chen nahm er|auch den Wein im|
w: 5.  Hier|geb ich euch mein|teu- res Blut im|
w: 6.  Das|macht euch al- ler|Sün- den frei, dass|
w: 7.  O|Je- su, dir sei|e- wig Dank, für|
"^Melodie: Joh. Crüger (1598-1662)\nSatz: Joh. Seb. Bach (1685-1750)\nText: Joh. Heermann (1585-1647)" B2 c2 d2 c2 | %4
w: rin er ward ver-|
w: brachs mit sei- nen|
w: für euch wird ge-|
w: Kelch und sprach zu|
w: Kel- che zu ge-|
w: sie euch nicht mehr|
w: dei- ne Treu und|
 B4 A2 E2 |[M:4/4] F2 F2 G2 G2 | A2 A2 F2 D2 | E2 F2 G2 F2 | E4 !fermata!D2 |] %9
w: ra- ten, auf|1.  un- ser Heil ganz|war be- dacht, das-|selb uns zu er-|stat- ten:|
w: Fin- gern, sah|2.  auf gen Him- mel,|dank- te Gott und|sprach zu sei- nen|Jün- gern:|
w: ge- ben, und|3 . den- ket, dass ich|eu- er bleib im|Tod und auch im|Le- ben.|
w: al- len: Nehmt|4.  hin und trin- ket|in- ge- mein, wollt|ihr Gott recht ge-|fal- len.|
w: nie- ßen, das|5.  ich für euch und|euch zu gut am|Kreuz jetzt werd ver-|gie- ßen.|
w: krän- ken; so|6.  oft ihrs tut, sollt|ihr da- bei an|mei- nen Tod ge-|den- ken.|
w: Ga- ben; ach,|7.  laß durch die- se|Speis und Trank auch|mich das Le- ben|ha- ben.|
V:2
 F2 | G2 GF FE F2 | F2 FE C2 A2 | A^G A2 AG A2 | (A2 ^G2) E2 ^C2 |[M:4/4] D2 D2 DB, ^CD | %6
 ED E^C D2 A,B, | C2 C2 ^C2 D2 | (D2 ^C2) !fermata!A,2 |] %9
V:3
 d2 | c2 c2 _B2 c2 | d2 c>_B A2 c2 | f2 e2 d2 e2 | (f2 ed) ^c2 A2 |[M:4/4] A2 A2 G2 _B2 | %6
w: 1.  Als|Je- sus Chri- stus|in der * Nacht, da-|rin er ward ver-|ra * * ten, auf|1.  un- ser Heil ganz|
w: 2.  Da|nahm er in die|Hand das * Brot und|brachs mit sei- nen|Fin- * * gern, sah|2.  auf gen Him- mel,|
w: 3.  Nehmt|hin und eßt, das|ist mein * Leib, der|für euch wird ge-|ge- * * ben, und|3 . den- ket, dass ich|
w: 4.  Des-|glei- chen nahm er|auch den * Wein im|Kelch und sprach zu|al- * * len: Nehmt|4.  hin und trin- ket|
w: 5.  Hier|geb ich euch mein|teu- res * Blut im|Kel- che zu ge-|nie- * * ßen, das|5.  ich für euch und|
w: 6.  Das|macht euch al- ler|Sün- den * frei, dass|sie euch nicht mehr|krän- * * ken; so|6.  oft ihrs tut, sollt|
w: 7.  O|Je- su, dir sei|e- wig * Dank, für|dei- ne Treu und|Ga- * * ben; ach,|7.  laß durch die- se|
 A2 A2 A2 F2 | G2 AF _BG A2 | (AEAG) !fermata!^F2 |] %9
w: war be- dacht, das-|selb uns * zu * er-|stat * * * ten:|
w: dank- te Gott und|sprach zu * sei- * nen|Jün- * * * gern:|
w: eu- er bleib im|Tod und * auch * im|Le- * * * ben.|
w: in- ge- mein, wollt|ihr Gott * recht * ge-|fal- * * * len.|
w: euch zu gut am|Kreuz jetzt * werd * ver-|gie- * * * ßen.|
w: ihr da- bei an|mei- nen * Tod * ge-|den- * * * ken.|
w: Speis und Trank auch|mich das * Le- * ben|ha- * * * ben.|
V:4
 D,2 | E,2 F,2 G,2 A,2 | B,2 C2 F,2 F,E, | D,2 C,2 B,,2 A,,2 | (D,2 E,2) A,,2 A,,2 | %5
w: |||||
[M:4/4] (D,, D,2) C, (B,, E,2) D, | ^C,B,, C,A,, D,2 D,2 | C,_B,, A,,2 E,,2 F,,G,, | %8
w: 1.  un * ser Heil * ganz|war * be- * dacht, das-|selb * uns zu er- *|
 A,,4 !fermata!D,2 |] %9
w: stat- ten:|

